packages/kaspersky-hexa-ui-icons/src/iconsSVGs/24/PasswordProtected.svg

<svg width="24" height="24" viewBox="0 0 24 24" fill="none" xmlns="http://www.w3.org/2000/svg">
<path d="M11.0994 2.3516C11.6771 2.05174 12.3646 2.05174 12.9423 2.3516L19.5026 5.75693C19.834 5.92892 20.0419 6.27116 20.0419 6.64448V7.34711C20.0219 7.35547 20.0019 7.36407 19.982 7.37291C19.3812 7.1042 18.6909 7.05345 18.0419 7.25547V7.2521L12.0208 4.12671L5.99976 7.2521V7.26095C5.34759 7.05315 4.6524 7.10152 4.04745 7.3706C4.03161 7.36351 4.01571 7.35658 3.99976 7.3498V6.64448C3.99976 6.27116 4.20771 5.92892 4.53905 5.75693L11.0994 2.3516Z" fill="black"/>
<path d="M17.4744 16.1414C17.873 16.3724 18.3054 16.4922 18.7358 16.5103C17.6594 18.3826 16.292 19.6607 15.1014 20.5022C14.3515 21.0322 13.6696 21.3908 13.1692 21.6189C12.9187 21.7331 12.7127 21.815 12.565 21.8697C12.4911 21.8971 12.4318 21.9176 12.3886 21.9321L12.3618 21.9409L12.3362 21.9492L12.3195 21.9544L12.3136 21.9562L12.3112 21.9569L12.3102 21.9572L12.0208 21C11.7696 21.968 11.7687 21.9677 11.7687 21.9677L11.7676 21.9674L11.7651 21.9668L11.7588 21.9651L11.7414 21.9603L11.7252 21.9558L11.6873 21.9449C11.6429 21.9318 11.5821 21.9131 11.5067 21.8881C11.356 21.8379 11.1463 21.7621 10.8917 21.6543C10.3831 21.4391 9.69124 21.0949 8.93172 20.5711C7.721 19.7362 6.33997 18.4454 5.26228 16.5067C5.7013 16.4924 6.14323 16.3725 6.54983 16.1368C6.75868 16.0157 6.94564 15.8713 7.10933 15.7089C8.0007 17.2438 9.10625 18.262 10.0671 18.9246C10.6976 19.3594 11.2664 19.6412 11.6711 19.8125C11.7999 19.867 11.9116 19.9101 12.0029 19.9432C12.0953 19.9064 12.2088 19.8587 12.3397 19.799C12.7456 19.614 13.3154 19.3154 13.947 18.869C14.9074 18.1902 16.0059 17.1738 16.8956 15.6941C17.0638 15.8645 17.2573 16.0155 17.4744 16.1414Z" fill="black"/>
<path d="M12.0208 21L11.7696 21.968C11.9471 22.014 12.1347 22.0101 12.3102 21.9572C12.3102 21.9572 12.3093 21.9575 12.0208 21Z" fill="black"/>
<path d="M2.27366 10.2564C2.0659 9.89803 2.18798 9.43911 2.54632 9.23136C2.90467 9.0236 3.36358 9.14568 3.57134 9.50402L4.04553 10.3219L4.51838 9.50634C4.72613 9.14799 5.18505 9.02592 5.54339 9.23367C5.90173 9.44143 6.02381 9.90034 5.81605 10.2587L5.35001 11.0625L6.29315 11.0608C6.70737 11.0601 7.04376 11.3953 7.04451 11.8095C7.04526 12.2237 6.71008 12.5601 6.29587 12.5608L5.34456 12.5625L5.81937 13.3815C6.02712 13.7398 5.90505 14.1988 5.5467 14.4065C5.18836 14.6143 4.72944 14.4922 4.52169 14.1339L4.04553 13.3126L3.56802 14.1362C3.36027 14.4945 2.90135 14.6166 2.54301 14.4088C2.18466 14.2011 2.06259 13.7422 2.27034 13.3838L2.74376 12.5673L1.81386 12.5689C1.39965 12.5697 1.06325 12.2345 1.0625 11.8203C1.06175 11.4061 1.39693 11.0697 1.81115 11.0689L2.74378 11.0672L2.27366 10.2564Z" fill="black"/>
<path d="M18.4809 9.23367C18.1225 9.44143 18.0005 9.90034 18.2082 10.2587L18.6783 11.0696L17.7457 11.0712C17.3315 11.072 16.9963 11.4084 16.9971 11.8226C16.9978 12.2368 17.3342 12.572 17.7484 12.5712L18.6783 12.5696L18.2049 13.3861C17.9972 13.7445 18.1192 14.2034 18.4776 14.4111C18.8359 14.6189 19.2948 14.4968 19.5026 14.1385L19.9801 13.3149L20.4563 14.1362C20.664 14.4945 21.1229 14.6166 21.4813 14.4088C21.8396 14.2011 21.9617 13.7422 21.7539 13.3838L21.2791 12.5649L22.2304 12.5631C22.6447 12.5624 22.9798 12.226 22.9791 11.8118C22.9783 11.3976 22.6419 11.0624 22.2277 11.0631L21.2846 11.0648L21.7506 10.261C21.9584 9.90265 21.8363 9.44374 21.478 9.23598C21.1196 9.02823 20.6607 9.1503 20.4529 9.50865L19.9801 10.3242L19.5059 9.50633C19.2981 9.14799 18.8392 9.02591 18.4809 9.23367Z" fill="black"/>
<path d="M10.2409 10.261C10.0332 9.90265 10.1553 9.44374 10.5136 9.23598C10.8719 9.02823 11.3309 9.1503 11.5386 9.50865L12.0128 10.3265L12.4857 9.51096C12.6934 9.15261 13.1523 9.03054 13.5107 9.23829C13.869 9.44605 13.9911 9.90496 13.7833 10.2633L13.3173 11.0672L14.2604 11.0654C14.6747 11.0647 15.011 11.3999 15.0118 11.8141C15.0125 12.2283 14.6774 12.5647 14.2632 12.5654L13.3118 12.5672L13.7866 13.3861C13.9944 13.7445 13.8723 14.2034 13.514 14.4111C13.1556 14.6189 12.6967 14.4968 12.489 14.1385L12.0128 13.3172L11.5353 14.1408C11.3276 14.4991 10.8686 14.6212 10.5103 14.4135C10.1519 14.2057 10.0299 13.7468 10.2376 13.3884L10.711 12.5719L9.78114 12.5736C9.36693 12.5743 9.03054 12.2391 9.02979 11.8249C9.02904 11.4107 9.36421 11.0743 9.77843 11.0736L10.7111 11.0719L10.2409 10.261Z" fill="black"/>
</svg>

<svg xmlns="http://www.w3.org/2000/svg" width="24" height="24" fill="none" viewBox="0 0 24 24"><path fill="#000" fill-rule="evenodd" d="M11.0994 2.3516a2 2 0 0 1 1.8429 0l6.5603 3.4053a1 1 0 0 1 .5393.8876v.7026q-.03.0126-.0599.0258c-.6008-.2687-1.2911-.3194-1.9401-.1174V7.252l-6.0211-3.1254-6.021 3.1254v.0088c-.6522-.2078-1.3474-.1594-1.9524.1097a3 3 0 0 0-.0476-.0208v-.7053a1 1 0 0 1 .5393-.8876zm-8.553 6.8798a.75.75 0 0 0-.2727 1.025l.47.8108-.9326.0017a.75.75 0 0 0 .0028 1.5l.9299-.0017-.4735.8166a.75.75 0 0 0 .2727 1.025.75.75 0 0 0 1.025-.2726l.4775-.8237.4762.8213a.75.75 0 1 0 1.2977-.7523l-.4748-.819.9513-.0017a.75.75 0 0 0-.0027-1.5l-.9432.0017.466-.8038a.75.75 0 0 0-1.2976-.7524l-.4729.8156-.4742-.8179a.75.75 0 0 0-1.025-.2726m15.9345.0023a.75.75 0 0 0-.2727 1.025l.4701.8109-.9326.0016a.75.75 0 0 0 .0027 1.5l.9299-.0016-.4734.8165a.75.75 0 0 0 1.2977.7524l.4775-.8236.4762.8213a.75.75 0 1 0 1.2976-.7524l-.4748-.819.9513-.0017a.75.75 0 1 0-.0027-1.5l-.9431.0017.466-.8038a.75.75 0 1 0-1.2977-.7523l-.4728.8155-.4742-.8179a.75.75 0 0 0-1.025-.2726m-8.24 1.0273a.75.75 0 0 1 1.2977-.7523l.4742.8178.4729-.8155a.75.75 0 1 1 1.2976.7523l-.466.8038.9431-.0017a.7501.7501 0 0 1 .0028 1.5l-.9514.0018.4749.8189a.75.75 0 0 1-1.2977.7524l-.4762-.8213-.4775.8236a.75.75 0 0 1-1.025.2726.75.75 0 0 1-.2727-1.025l.4734-.8165-.9299.0017a.7501.7501 0 0 1-.0027-1.5l.9327-.0017zm7.2335 5.8804c.3986.231.831.3508 1.2614.3689a12.52 12.52 0 0 1-3.6344 3.9919c-.7499.53-1.4318.8886-1.9322 1.1167a9 9 0 0 1-.6042.2508 6 6 0 0 1-.1764.0624l-.0268.0088-.0256.0082-.0167.0053-.0059.0018-.0024.0007-.001.0003a1.003 1.003 0 0 1-.5406.0107L12.0208 21c-.2512.9679-.2521.9677-.2521.9677l-.0011-.0003-.0025-.0007-.0063-.0016-.0174-.0048-.0162-.0045-.0379-.0109a6 6 0 0 1-.1806-.0569 8.3 8.3 0 0 1-.615-.2337c-.5086-.2152-1.2005-.5594-1.96-1.0832-1.2107-.8349-2.5917-2.1257-3.6694-4.0644a2.74 2.74 0 0 0 1.2875-.37 2.75 2.75 0 0 0 .5595-.4278c.8914 1.5348 1.997 2.5531 2.9578 3.2157.6305.4348 1.1993.7166 1.604.8878.1288.0546.2405.0977.3318.1308a7.5 7.5 0 0 0 .3368-.1442c.4059-.185.9757-.4836 1.6073-.93a10.51 10.51 0 0 0 2.9486-3.1749c.1682.1704.3617.3214.5788.4473"/></svg>
